X: 5
T: This Is My Love, Do You Like Her?
R: jig
M: 6/8
L: 1/8
K: Emin
D|:E3 EDE|G3 GAB|AFA AFA|d3 def|
dBG GAB|AFD DEF|GFE FED|1 E3 E2D:|2 E3 E2e||
|:efe dBA|GAB dBd|efe edB|def g3|
dBG GAB|AFD DEF|GAG FED|1 E3 E2e:|2 E3 E2D||


Tune 6	Setting 12356

